!!!COM: Dagnon, Gilbert Jean
!!!CDT: b. 1926
!!!OTL: National Anthem, Benin (L'Aube Nouvelle) (The Dawn of a New Day)
!!!ENC: Davis, Matthew J.
!!Vocal Line Only
**kern
*clefG2
*k[f#]
*G:
*M4/4
=1-
4r
=2
1r
=3
1r
=4
2r
4r
8.d
8c
=5
4B
4d
4g
4b
=6
2a
4r
8.d
16c
=7
2B
4b
4a
=8
2g
4g
4r
=9
2cc
4b
4b
=10
4a
4g
4a
4d
=11
4c#
4d
4b
4a
=12
2g
4g
8r
16r
16dd
=13
4dd
4b
8.g
16b
=14
2dd
4dd
4ee
=15
2dd
4cc
4b
=16
2a
4r
8.d
16c
=17
4B
8.g
16a
4b
8.d
16c
=18
4B
4g
4b
4ee
=19
4.dd
8r
4dd
8.dd
16dd
=20
8.dd
16dd
8.dd
16dd
4b
8.g
16b
=21
2dd
4dd
4r
=22
2.dd
4cc
=23
4b
8.a
16g
4a
4d
=24
4c#
4d
4b
4a
=25
2g
8g
8r
=26
!Chorus
8.g
16a
=27
4b
4g
4cc
8.b
16a
=28
2g
4r
4d
=29
4g
4g
8.a
16a
8.g
16a
=30
2b
8b
8r
8.g
16a
=31
4b
4g
4dd
8.cc
16b
=32
2b
8a
8g
8f#
8g
=33
4e
4cc
4b
4a
=34
3g
4r
==|!
*-
